src/assets/images/currency/DYDX.svg

<svg fill="none" height="183" viewBox="0 0 183 183" width="183" xmlns="http://www.w3.org/2000/svg" xmlns:xlink="http://www.w3.org/1999/xlink"><linearGradient id="a" gradientUnits="userSpaceOnUse" x1="147.5" x2="103" y1="-24.5" y2="160.5"><stop offset="0" stop-color="#2c2c3d"/><stop offset="1" stop-color="#1a1a27"/></linearGradient><linearGradient id="b" gradientUnits="userSpaceOnUse" x1="63.89" x2="92.895" y1="49.188" y2="84.82"><stop offset="0" stop-color="#fff"/><stop offset="1" stop-color="#fff" stop-opacity=".55"/></linearGradient><linearGradient id="c" gradientUnits="userSpaceOnUse" x1="122.359" x2="86.787" y1="134.487" y2="85.686"><stop offset="0" stop-color="#6966ff"/><stop offset="1" stop-color="#6966ff" stop-opacity=".36"/></linearGradient><rect fill="url(#a)" height="181" rx="37" width="181" x="1" y="1"/><path d="m115.316 43-70.316 98.992h21.5885l70.6805-98.992z" fill="#fff"/><path d="m68.8375 43 20.689 29.1696-10.7943 15.9108-31.933-45.0804z" fill="url(#b)"/><path d="m117.411 142-22.9373-32.263 10.7943-15.4691 33.732 47.7321z" fill="url(#c)"/><rect height="181" rx="37" stroke="#2d2d3d" stroke-width="2" width="181" x="1" y="1"/></svg>

<svg xmlns="http://www.w3.org/2000/svg" width="183" height="183" fill="none" viewBox="0 0 183 183"><rect width="181" height="181" x="1" y="1" fill="url(#paint0_linear)" rx="37"/><path fill="#fff" d="M115.316 43L45 141.992H66.5885L137.269 43H115.316Z"/><path fill="url(#paint1_linear)" d="M68.8375 43L89.5265 72.1696L78.7322 88.0804L46.7992 43H68.8375Z"/><path fill="url(#paint2_linear)" d="M117.411 142L94.4737 109.737L105.268 94.2679L139 142H117.411Z"/><rect width="181" height="181" x="1" y="1" stroke="#2D2D3D" stroke-width="2" rx="37"/><defs><linearGradient id="paint0_linear" x1="147.5" x2="103" y1="-24.5" y2="160.5" gradientUnits="userSpaceOnUse"><stop stop-color="#2C2C3D"/><stop offset="1" stop-color="#1a1a27"/></linearGradient><linearGradient id="paint1_linear" x1="63.89" x2="92.895" y1="49.188" y2="84.82" gradientUnits="userSpaceOnUse"><stop stop-color="#fff"/><stop offset="1" stop-color="#fff" stop-opacity=".55"/></linearGradient><linearGradient id="paint2_linear" x1="122.359" x2="86.787" y1="134.487" y2="85.686" gradientUnits="userSpaceOnUse"><stop stop-color="#6966FF"/><stop offset="1" stop-color="#6966FF" stop-opacity=".36"/></linearGradient></defs></svg>
